X:1
T:Title
%%score { ( 1 3 4 ) | ( 2 5 ) }
L:1/8
Q:1/4=144
M:6/4
K:Ab
V:1 treble nm="Grand Piano"
V:3 treble 
V:4 treble 
V:2 bass 
V:5 bass 
V:1
 [CA]2 [CG]2 [CF]2 [CE]2 [_C=D]2 [=CE]2 | [DF]6 .[CE]6 | [CA]2 [DB]2 [Ec]2 [FB]2 [CEA]2 [B,EG]2 | %3
w: Haldor~Lillenas * * * * *|||
 [CEA]12 | [CA]2 [CG]2 [CF]2 [CE]2 [_C=D]2 [=CE]2 | [DF]6 [CE]4 c2 | B2 A2 G2 G4 [=DF]2 | [DB]12 | %8
w: |||||
 [CA]2 [CG]2 [CF]2 [CE]2 [_C=D]2 [=CE]2 | [DF]6 .[CE]6 | c2 c2 c2 e2 c2 A2 | [DFd]12 | %12
w: ||||
 [_CFA]2 [CFG]2 [CF]2 [CFA]2 [CFG]2 [=CEA]2 | [EAc]6 [Ae]4 [Af]2 | %14
w: ||
 [Ae]2 [Gd]2 [Ac]2 [Ac] [Ac]3 [DEB]2 | [CEA]12 | .[EAc]12[K:bass][K:treble] | [DEGB]12[K:bass] | %18
w: ||||
 .[EGBd]12[K:bass][K:treble] | [EAc]12[K:bass] | .[Adf]12 | [Ace]6[K:bass][K:treble] z6 | %22
w: ||||
 .[AB=d]12 | z6[K:bass][K:treble] .d6[K:bass] | .[Ec]12 |[M:5/4] B2- B2- B6 |[M:1/4] B2 | %27
w: |||||
[M:6/4] .d12 | c12 | .[Ff]12 | [Ae]6 z6 | .[Gd]12 | A12 |] %33
w: ||||||
V:2
 [A,,A,]2 [A,,A,]2 [A,,A,]2 [A,,A,]2 [A,,A,]2 [A,,A,]2 | [A,,A,]6 .[A,,A,]6 | %2
 [A,,A,]2 [A,,A,]2 [A,,A,]2 [D,A,]2 E,2 E,2 | A,,12 | %4
 [A,,A,]2 [A,,A,]2 [A,,A,]2 [A,,A,]2 [A,,A,]2 [A,,A,]2 | [A,,A,]6 [A,,A,]4 [A,E]2 | %6
 [G,B,E]2 [F,B,=D]2 [E,B,E]2 [B,D]4 [B,,A,]2 | [E,G,]12 | %8
 [A,,A,]2 [A,,A,]2 [A,,A,]2 [A,,A,]2 [A,,A,]2 [A,,A,]2 | [A,,A,]6 .[A,,A,]6 | %10
 [A,E]2 [A,E]2 [A,E]2 [A,CA]2 [A,FA]2 [A,C_G]2 | D,12 | =D,2 D,2 D,2 D,2 D,2 E,2 | %13
 E,6 [E,C]4 [D,D]2 | [E,C]2 [E,B,]2 [E,E]2 [E,E] [E,E]3 E,2 | A,,12 | %16
 [A,,A,]2 G,,2 F,,2 E,,2 [F,,F,]2 [A,,A,]2 | [B,,B,]2 G,,2 F,,2 E,,2 F,,2 G,,2 | %18
 [B,,B,]2 G,,2 F,,2 E,,2 [F,,F,]2 [G,,G,]2 | [A,,A,]2 E,,2 C,,2 .A,,,6 | %20
 [D,,D,]2 F,,2 A,,2 z2[K:treble] A2 [Ad]2 | [A,,,A,,]2 C,,2 E,,2 [A,,A,]4 [EA]2 | %22
 [B,,B,]2 =A,,2 B,,2 =D,2 [C,C]2 [B,,B,]2 | [E,,E,]2 F,,2 E,,2 [D,,D,]2 C,,2 B,,,2 | %24
 [A,,A,]2 A,,2 A,,2 z2 E2 E2 |[M:5/4] [E,G,E]2 [E,G,]2 [F,A,]2 [G,B,]4 |[M:1/4] [E,G,E]2 | %27
[M:6/4] [E,G,E]2 [E,B,]2 [E,A,]2 [E,G,]4 [E,G,]2 | [A,,A,]2 [A,,A,]2 [A,,A,]2 [A,,A,]4 [C,A,]2 | %29
 [D,A,]2 D,2 D,2 D,2 [D,A,]2 [D,D]2 | [A,C]2 A,2 A,2[K:treble] [A,EA]4 [A,EA]2 | %31
 [E,E]2 E,2 E,2 E,2 E,2 E,2 | z2 C2 _C2 .=C6 |] %33
V:3
 x12 | x12 | x12 | x12 | x12 | x12 | x12 | x12 | x12 | x12 | x12 | x12 | x12 | x12 | x12 | x12 | %16
 z2[K:bass] G,2 F,2 E,2[K:treble] [EGBd]2 [EAc]2 | z2[K:bass] G,2 F,2 E,2 F,2 G,2 | %18
 z2 G,2[K:bass] F,2 E,2[K:treble] [EGBe]2 [EGB]2 | z2[K:bass] E,2 C,2 .A,,6 | z2 F,2 A,2 z2 d2 f2 | %21
 z2[K:bass] C,2 E,2[K:treble] [EAc]4 c2 | z2 =A,2 B,2 =D2 [Ac]2 [A=d]2 | %23
 [GBe]12[K:bass][K:treble][K:bass] | z2 A,2 A,2 z2 d2 c2 |[M:5/4] z2 E2 =D2 _D4 |[M:1/4] x2 | %27
[M:6/4] z2 G2 F2 z2 e2 B2 | E2 A2 F2 E4 [_Ge]2 | z2 A,2 A,2 A,2 [Fd]2 [Ff]2 | z2 C2 C2 c4 c2 | %31
 z2 B,2 C2 D2 [EAc]2 [DEB]2 | [CE]2 E2 =D2 .E6 |] %33
V:4
 x12 | x12 | x12 | x12 | x12 | x12 | x12 | x12 | x12 | x12 | x12 | x12 | x12 | x12 | x12 | x12 | %16
 x2[K:bass] x6[K:treble] x4 | x2[K:bass] x10 | x4[K:bass] x4[K:treble] x4 | x2[K:bass] x10 | %20
 z6 .D6 | x2[K:bass] x4[K:treble] x6 | x12 | z2[K:bass] F,2 E,2[K:treble] z2[K:bass] C,2 B,,2 | %24
 z6 A,6 |[M:5/4] x10 |[M:1/4] x2 |[M:6/4] z6 E6 | x12 | x12 | x12 | x12 | x12 |] %33
V:5
 x12 | x12 | x12 | x12 | x12 | x12 | x12 | x12 | x12 | x12 | x12 | x12 | x12 | x12 | x12 | x12 | %16
 x12 | x12 | x12 | x12 | z6 .D,6[K:treble] | x12 | x12 | x12 | z6 A,,6 |[M:5/4] x10 |[M:1/4] x2 | %27
[M:6/4] x12 | x12 | x12 | x6[K:treble] x6 | x12 | A,,12 |] %33

